X:1
T: Bobbing for Eels
C:
R:Jig
Q:180
K:A
M:6/8
L:1/16
|:A4a2 e2c2A2|B2A2B2 d2c2B2|A4a2 e2c2A2|B2A2B2 c2A2E2|
A4a2 e2c2A2|B2A2B2 c2d2e2|f2a2f2 e2c2A2|1B2A2B2 A6:|2B2A2B2 A4e2|
|:a2c'2a2 g2b2g2|f2a2f2 e2f2g2|a2g2a2 b2c'2d'2|c'2d'2c'2 b2g2e2|
a2c'2a2 g2b2g2|f2a2f2 e2f2g2|a2g2f2 e2d2c2|1B2A2B2 A4e2:|2B2A2B2 A6||
